Obsidian-SemiLight/actions/24s/speaker.svg

<svg viewBox="0 0 24 24" xmlns="http://www.w3.org/2000/svg"><path d="m12 4c-1.916304 0-3.6682923.6696447-5.0429688 1.7851562-.1002739-.4466971-.4792062-.7851562-.9570312-.7851562-.554 0-1 .446-1 1 0 .477825.3384591.8567573.7851562.9570312-1.1155115 1.3746764-1.7851562 3.1266648-1.7851562 5.0429688s.6696447 3.668292 1.7851562 5.042969c-.4466971.100274-.7851562.479206-.7851562.957031 0 .554.446 1 1 1 .477825 0 .8567573-.338459.9570312-.785156 1.3746764 1.115511 3.1266648 1.785156 5.0429688 1.785156s3.668292-.669645 5.042969-1.785156c.100274.446697.479206.785156.957031.785156.554 0 1-.446 1-1 0-.477825-.338459-.856757-.785156-.957031 1.115511-1.374677 1.785156-3.126665 1.785156-5.042969s-.669645-3.6682923-1.785156-5.0429688c.446697-.1002739.785156-.4792062.785156-.9570312 0-.554-.446-1-1-1-.477825 0-.856757.3384591-.957031.7851562-1.374677-1.1155115-3.126665-1.7851562-5.042969-1.7851562zm-1 1 .046875.0722656c.312588-.0423495.628564-.0722656.953125-.0722656 3.878002 0 7 3.1219982 7 7 0 3.878002-3.121998 7-7 7-3.8780018 0-7-3.121998-7-7 0-3.4836003 2.5222217-6.3499762 5.845703-6.8984375zm1 5c-1.108 0-2 .892-2 2s.892 2 2 2 2-.892 2-2-.892-2-2-2z" fill="#4d4d4d"/></svg>

<svg xmlns="http://www.w3.org/2000/svg" viewBox="0 0 24 24">
  <defs id="defs3051">
    <style type="text/css" id="current-color-scheme">
      .ColorScheme-Text {
        color:#4d4d4d;
      }
      </style>
  </defs>
 <path style="fill:currentColor;fill-opacity:1;stroke:none" 
     d="M 12 4 C 10.083696 4 8.3317077 4.6696447 6.9570312 5.7851562 C 6.8567573 5.3384591 6.477825 5 6 5 C 5.446 5 5 5.446 5 6 C 5 6.477825 5.3384591 6.8567573 5.7851562 6.9570312 C 4.6696447 8.3317076 4 10.083696 4 12 C 4 13.916304 4.6696447 15.668292 5.7851562 17.042969 C 5.3384591 17.143243 5 17.522175 5 18 C 5 18.554 5.446 19 6 19 C 6.477825 19 6.8567573 18.661541 6.9570312 18.214844 C 8.3317076 19.330355 10.083696 20 12 20 C 13.916304 20 15.668292 19.330355 17.042969 18.214844 C 17.143243 18.661541 17.522175 19 18 19 C 18.554 19 19 18.554 19 18 C 19 17.522175 18.661541 17.143243 18.214844 17.042969 C 19.330355 15.668292 20 13.916304 20 12 C 20 10.083696 19.330355 8.3317077 18.214844 6.9570312 C 18.661541 6.8567573 19 6.477825 19 6 C 19 5.446 18.554 5 18 5 C 17.522175 5 17.143243 5.3384591 17.042969 5.7851562 C 15.668292 4.6696447 13.916304 4 12 4 z M 11 5 L 11.046875 5.0722656 C 11.359463 5.0299161 11.675439 5 12 5 C 15.878002 5 19 8.1219982 19 12 C 19 15.878002 15.878002 19 12 19 C 8.1219982 19 5 15.878002 5 12 C 5 8.5163997 7.5222217 5.6500238 10.845703 5.1015625 L 11 5 z M 12 10 C 10.892 10 10 10.892 10 12 C 10 13.108 10.892 14 12 14 C 13.108 14 14 13.108 14 12 C 14 10.892 13.108 10 12 10 z "
     class="ColorScheme-Text"
     />
</svg>
